X:1
T:Ella, CM
T:Ella, CM
T:Isaac Baker Woodbury (1819-1858)
T:Public Domain Courtesy of the Cyber Hymnal™
C:Isaac Baker Woodbury (1819-1858)
Z:Public Domain
Z:Courtesy of the Cyber Hymnal™
%%score ( 1 2 ) ( 3 4 )
L:1/8
M:6/4
K:Eb
V:1 treble 
V:2 treble 
V:3 bass 
V:4 bass 
V:1
 (EF) | [EG]4 [EG]2 [EG]4 (EG) | [GB]4 [GB]2 [GB]4 ([EG][GB]) | [Ge]4 [Ge]2 [Fd]4 [Ec]2 | %4
 [DB]6- [DB]4 [GB]2 | [Ge]4 [GB]2 [Ac]4 [GB]2 | [Ge]4 [GB]2 [Ac]4 [GB]2 | %7
 ([GB]2 [Ac]2) [GB]2 [FA]2 [EG]2 [DF]2 | [EG]6- [EG]4 |] %9
V:2
 E2 | x10 E2 | x12 | x12 | x12 | x12 | x12 | x12 | x10 |] %9
V:3
 [E,G,]2 | [E,B,]4 [E,B,]2 [E,B,]4 (G,B,) | [E,E]4 [E,E]2 [E,E]4 [E,B,]2 | %3
 [E,B,]4 [E,B,]2 [F,B,]4 [F,=A,]2 | [B,,B,]6- [B,,B,]4 [E,E]2 | [E,B,]4 [E,B,]2 [E,E]4 [E,E]2 | %6
 [E,B,]4 [E,B,]2 [E,E]4 [E,E]2 | (B,2 E2) [G,B,]2 B,4 [B,,B,]2 | [E,B,]6- [E,B,]4 |] %9
V:4
 x2 | x10 E,2 | x12 | x12 | x12 | x12 | x12 | E,4 B,4 x4 | x10 |] %9

